X: 1
T:Boney Lad. JaW.001
T:Because He Was A Bonny Lad,aka. JaW.001
M:2/4
L:1/8
Q:1/4=100
C:Because He Was A Bonny Lad,aka
S:James Winder Ms, Lancashire, 1835-41
R:Reel
O:England
A:Wyresdale,Lancashire
N:NB=Bar missing in MS, reconstructed by me..CGP..
H:1/8
Z:vmp.Chris Partington, Aug 2004
K:A
c>BAg|faec|efec|B2B2|\
c>BAg|faec|d>fec|A2A2:|!
|:cAeA|fAeA|"NB"efec|B2B2|\
cAeA|fAeA| d>fecA2A2:|]
